X:140
T: ICH LEBTE EINST IM DEUTSCHEN VATERLANDE
N: B0170
O: Europa, Mitteleuropa, Deutschland, Hessen, Darmstadt
R: Ballade, Romanze
M: 4/4
L: 1/8
K: C
G,G,G, | E,3G,CB,A,G, | G,F,F,3
F,F,E, | D,3G,G,G,A,G, | E,4z
CCC | A,3B,DCB,A, | A,G,G,3
CG,E, | D,3CB,G,A,G, | E,4z

